**harm	**harte	**timestamp	**phrase	**leadinstrument	**kern
*M4/4	*M4/4	*	*	*	*
*A:	*A:	*	*	*	*A:
1r;	N	0	.	r	1r;
=1	=1	=1	=1	=1	=1
*>A2_intro	*>A2_intro	*>A2_intro	*>A2_intro	*>A2_intro	*>A2_intro
1I	A:maj(9)	0.395	newline	r	1A 1cc# 1ee
=2	=2	=2	=2	=2	=2
1Vf	E:maj/4	2.952	.	r	1E 1g# 1b
=3	=3	=3	=3	=3	=3
1I	A:sus2(b7)	5.509	.	r	1A 1cc# 1ee
=4	=4	=4	=4	=4	=4
1IVc	D:maj6(9)/5	8.066	.	r	1d 1f# 1A
=5	=5	=5	=5	=5	=5
1ivm7c	D:min9/5	10.623	newline	r	1d 1f 1A 1cc#
=6	=6	=6	=6	=6	=6
1I	A:maj	13.204	.	r	1A 1cc# 1ee
=7	=7	=7	=7	=7	=7
1iv	D:min6	15.785	.	r	1D 1f 1a
=8	=8	=8	=8	=8	=8
1V7	E:7	18.365	.	r	1E 1g# 1b 1dd
=9	=9	=9	=9	=9	=9
*>A_verse	*>A_verse	*>A_verse	*>A_verse	*>A_verse	*>A_verse
1I	A:maj(9)	20.946	newline	voice	1A 1cc# 1ee
=10	=10	=10	=10	=10	=10
1Vf	E:maj/4	23.357	.	voice	1E 1g# 1b
=11	=11	=11	=11	=11	=11
1I	A:sus2(b7)	25.769	.	voice	1A 1cc# 1ee
=12	=12	=12	=12	=12	=12
1IVc	D:maj6(9)/5	28.18	.	voice	1d 1f# 1A
=13	=13	=13	=13	=13	=13
1ivm7c	D:min9/5	30.592	newline	voice	1d 1f 1A 1cc#
=14	=14	=14	=14	=14	=14
1I	A:maj	33.039	.	voice	1A 1cc# 1ee
=15	=15	=15	=15	=15	=15
1iv	D:min6	35.487	.	voice	1D 1f 1a
=16	=16	=16	=16	=16	=16
1V7	E:7	37.935	.	voice	1E 1g# 1b 1dd
=17	=17	=17	=17	=17	=17
1I	A:maj(9)	40.382	newline	voice	1A 1cc# 1ee
=18	=18	=18	=18	=18	=18
1Vf	E:maj/4	42.828	.	voice	1E 1g# 1b
=19	=19	=19	=19	=19	=19
1I	A:sus2(b7)	45.274	.	voice	1A 1cc# 1ee
=20	=20	=20	=20	=20	=20
1IVc	D:maj6(9)/5	47.72	.	voice	1d 1f# 1A
=21	=21	=21	=21	=21	=21
1ivm7c	D:min9/5	50.166	newline	voice	1d 1f 1A 1cc#
=22	=22	=22	=22	=22	=22
1I	A:maj	52.606	.	voice	1A 1cc# 1ee
=23	=23	=23	=23	=23	=23
1iv	D:min6	55.046	.	voice	1D 1f 1a
=24	=24	=24	=24	=24	=24
1V7	E:7	57.486	.	voice	1E 1g# 1b 1dd
=25	=25	=25	=25	=25	=25
*>B_chorus	*>B_chorus	*>B_chorus	*>B_chorus	*>B_chorus	*>B_chorus
1vi	F#:min	59.926	newline	voice	1F# 1a 1cc#
=26	=26	=26	=26	=26	=26
1vid	F#:min/7	62.364	.	voice	1f# 1a 1cc#
=27	=27	=27	=27	=27	=27
1vid	F#:min/b7	64.801	.	voice	1f# 1a 1cc#
=28	=28	=28	=28	=28	=28
1IV	D:maj6	67.239	.	voice	1D 1f# 1a
=29	=29	=29	=29	=29	=29
1iiio7	C#:hdim7	69.677	newline	voice	1C# 1e 1g 1b
=30	=30	=30	=30	=30	=30
1VI7	F#:7	72.188	.	voice	1F# 1a# 1cc# 1ee
=31	=31	=31	=31	=31	=31
1ii7	B:min7	74.7	.	voice	1B 1dd 1ff# 1aa
=32	=32	=32	=32	=32	=32
1V7	E:7	77.212	.	voice	1E 1g# 1b 1dd
=33	=33	=33	=33	=33	=33
*>A_verse	*>A_verse	*>A_verse	*>A_verse	*>A_verse	*>A_verse
1I	A:maj(9)	79.724	newline	voice	1A 1cc# 1ee
=34	=34	=34	=34	=34	=34
1Vf	E:maj/4	82.217	.	voice	1E 1g# 1b
=35	=35	=35	=35	=35	=35
1I	A:sus2(b7)	84.71	.	voice	1A 1cc# 1ee
=36	=36	=36	=36	=36	=36
1IVc	D:maj6(9)/5	87.203	.	voice	1d 1f# 1A
=37	=37	=37	=37	=37	=37
1ivm7c	D:min9/5	89.696	newline	voice	1d 1f 1A 1cc#
=38	=38	=38	=38	=38	=38
1I	A:maj	92.144	.	voice	1A 1cc# 1ee
=39	=39	=39	=39	=39	=39
1iv	D:min6	94.591	.	voice	1D 1f 1a
=40	=40	=40	=40	=40	=40
1V7	E:7	97.039	.	voice	1E 1g# 1b 1dd
=41	=41	=41	=41	=41	=41
1I	A:maj(9)	99.487	newline	voice	1A 1cc# 1ee
=42	=42	=42	=42	=42	=42
1Vf	E:maj/4	101.917	.	voice	1E 1g# 1b
=43	=43	=43	=43	=43	=43
1I	A:sus2(b7)	104.346	.	voice	1A 1cc# 1ee
=44	=44	=44	=44	=44	=44
1IVc	D:maj6(9)/5	106.776	.	voice	1d 1f# 1A
=45	=45	=45	=45	=45	=45
1ivm7c	D:min9/5	109.205	newline	voice	1d 1f 1A 1cc#
=46	=46	=46	=46	=46	=46
1I	A:maj	111.69	.	voice	1A 1cc# 1ee
=47	=47	=47	=47	=47	=47
1iv	D:min6	114.175	.	voice	1D 1f 1a
=48	=48	=48	=48	=48	=48
1V7	E:7	116.66	.	voice	1E 1g# 1b 1dd
=49	=49	=49	=49	=49	=49
*>B_chorus	*>B_chorus	*>B_chorus	*>B_chorus	*>B_chorus	*>B_chorus
1vi	F#:min	119.145	newline	voice	1F# 1a 1cc#
=50	=50	=50	=50	=50	=50
1vid	F#:min/7	121.573	.	voice	1f# 1a 1cc#
=51	=51	=51	=51	=51	=51
1vid	F#:min/b7	124.002	.	voice	1f# 1a 1cc#
=52	=52	=52	=52	=52	=52
1IV	D:maj6	126.43	.	voice	1D 1f# 1a
=53	=53	=53	=53	=53	=53
1iiio7	C#:hdim7	128.858	newline	voice	1C# 1e 1g 1b
=54	=54	=54	=54	=54	=54
1VI7	F#:7	131.48	.	voice	1F# 1a# 1cc# 1ee
=55	=55	=55	=55	=55	=55
1ii7	B:min7	134.103	.	voice	1B 1dd 1ff# 1aa
=56	=56	=56	=56	=56	=56
1V7	E:7	136.725	.	voice	1E 1g# 1b 1dd
=57	=57	=57	=57	=57	=57
*>C_outro	*>C_outro	*>C_outro	*>C_outro	*>C_outro	*>C_outro
1I	A:maj	139.347	newline	voice	1A 1cc# 1ee
=58	=58	=58	=58	=58	=58
1IVc	D:maj/5	142.001	.	voice	1d 1f# 1A
=59	=59	=59	=59	=59	=59
1ivc	D:min/5	144.656	.	voice	1d 1f 1A
=60	=60	=60	=60	=60	=60
1I	A:maj	147.31	.	voice	1A 1cc# 1ee
1r;	N	152.95	.	r	1r;
1r;	N	155.507	.	r	1r;
*-	*-	*-	*-	*-	*-
!!!OTL: If
!!!COC: Bread
!!!BillboardChartDate: 1971/06/05, 1971/06/05
!!!BillboardPeak: 4, 4
!!!BillboardWeeksOnChart: 12, 12
!!!SampleTargetRank: 18, 17
!!!SampleActualRank: 18, 18
!!!SampleID#: 106, 988
!!!RDF**harmony: **recip + pitch class of root + harmonic quality
!!!RDF**harte: Chris Harte's syntax, used by MIREX
!!!RDF**phrase: newline = linebreak in original McGill transcription
!!!RDF**timestamp: McGill audio timestamp in seconds
!!!RDF**leadinstrument: original McGill primary instrumentation annotation
!!!RDT: 2017/01/12/
!!!ENC: Nathaniel Condit-Schultz
!!!EST: Awating manual error checking and editing.
